X: 143
T:Bogie's Bonnie Belle
S:Belle Stewart
B:MacColl & Seeger, Till Doomsday in the Afternoon
M:4/4
L:1/8
Q:1/4=120
K:ADor
% mixolydian/dorian hexatonic
A2|A2A2 B2A2| G2F2 E2A,A,|D2D2  EF3  |A4  z2||
EF|G2F2 E2D2|(EA3) G2E2  |D2B,2 A,3A,|A,4 z2|]

An alternative version of "Bonnie Lass Among the Heather" (given
here earlier as an example of the Dorian mode) uses this gapped
scale:

